svg/Pictogram/pictogram-ghs-bottle.svg

<?xml version="1.0" encoding="UTF-8" standalone="no"?>
<svg height="579pt" id="svg2" inkscape:output_extension="org.inkscape.output.svg.inkscape" inkscape:version="0.45.1" preserveAspectRatio="xMidYMid meet" sodipodi:docbase="/home/henning/gefahrstoffbeauftragter/ghs_pictograms" sodipodi:docname="bottle.svg" sodipodi:version="0.32" version="1.0" viewBox="0 0 579 579" width="579pt" xmlns="http://www.w3.org/2000/svg" xmlns:cc="http://web.resource.org/cc/" xmlns:dc="http://purl.org/dc/elements/1.1/" xmlns:inkscape="http://www.inkscape.org/namespaces/inkscape" xmlns:rdf="http://www.w3.org/1999/02/22-rdf-syntax-ns#" xmlns:sodipodi="http://sodipodi.sourceforge.net/DTD/sodipodi-0.dtd" xmlns:svg="http://www.w3.org/2000/svg">
  <metadata>
    <rdf:RDF xmlns:cc="http://web.resource.org/cc/" xmlns:dc="http://purl.org/dc/elements/1.1/" xmlns:rdf="http://www.w3.org/1999/02/22-rdf-syntax-ns#">
      <cc:Work rdf:about="">
        <dc:title></dc:title>
        <dc:description></dc:description>
        <dc:subject>
          <rdf:Bag>
            <rdf:li>unsorted</rdf:li>
          </rdf:Bag>
        </dc:subject>
        <dc:publisher>
          <cc:Agent rdf:about="http://www.openclipart.org/">
            <dc:title>Open Clip Art Library, Source: Wikimedia Commons, Source: Wikimedia Commons, Source: Wikimedia Commons</dc:title>
          </cc:Agent>
        </dc:publisher>
        <dc:creator>
          <cc:Agent>
            <dc:title></dc:title>
          </cc:Agent>
        </dc:creator>
        <dc:rights>
          <cc:Agent>
            <dc:title></dc:title>
          </cc:Agent>
        </dc:rights>
        <dc:date></dc:date>
        <dc:format>image/svg+xml</dc:format>
        <dc:type rdf:resource="http://purl.org/dc/dcmitype/StillImage"/>
        <cc:license rdf:resource="http://en.wikipedia.org/wiki/Public_domain"/>
        <dc:language>en</dc:language>
      </cc:Work>
    </rdf:RDF>
  </metadata>
  <defs id="defs13"/>
  <sodipodi:namedview bordercolor="#666666" borderopacity="1.0" gridtolerance="10.0" guidetolerance="10.0" id="base" inkscape:current-layer="svg2" inkscape:cx="361.875" inkscape:cy="361.875" inkscape:pageopacity="0.0" inkscape:pageshadow="2" inkscape:window-height="649" inkscape:window-width="772" inkscape:window-x="500" inkscape:window-y="0" inkscape:zoom="0.60103627" objecttolerance="10.0" pagecolor="#ffffff"/>
  <path d="M 147.65941,148.01233 L 6,289.67173 L 147.66886,431.34059 L 289.32827,573 L 431.01602,431.31224 L 572.70378,289.62449 L 431.06327,147.98398 C 353.16571,70.086424 289.40386,6.34347 289.37551,6.34347 C 289.34716,6.34347 225.57586,70.095873 147.65941,148.01233 z M 408.62189,170.42535 L 527.82103,289.62449 L 408.57465,408.87087 L 289.31882,528.1267 L 170.12913,408.87087 L 50.948893,289.60559 L 170.13858,170.41591 C 235.69574,104.85874 289.34716,51.22622 289.37551,51.22622 C 289.40386,51.22622 343.06473,104.86819 408.62189,170.42535 z " id="path8" style="fill:#ff0000;stroke:none"/>
  <path d="M 348.0538,230.52099 C 347.09945,230.70053 163.04238,280.10935 162.38095,280.36447 C 157.1651,282.4149 153.65952,288.1221 152.60124,296.28603 C 152.38391,297.93961 152.27997,300.95384 152.37446,302.88144 C 152.52564,306.00906 152.9225,308.67367 153.68787,311.78239 C 156.80604,324.44405 164.68651,334.37495 173.11501,336.26475 C 174.09771,336.48208 176.42216,336.54822 177.40486,336.36869 C 178.23637,336.22696 360.62097,287.31893 362.47297,286.74254 C 365.99745,285.64646 368.66207,283.18972 370.60856,279.22114 C 371.6952,277.01952 372.34718,274.88405 372.90467,271.76588 C 373.34877,269.30914 373.72673,268.25085 374.77557,266.66342 C 376.05119,264.72637 378.2717,263.08225 380.51112,262.42082 C 380.87963,262.31688 389.96956,259.86959 400.72253,256.98764 C 411.47549,254.09625 420.49928,251.63006 420.7922,251.49777 C 425.13874,249.50404 426.72617,243.15431 424.22219,237.79672 C 422.84264,234.85809 420.3481,232.68482 417.70238,232.11788 C 416.80472,231.9289 415.43462,231.94779 414.52752,232.16512 C 414.11176,232.26906 405.14466,234.66911 394.59013,237.49436 C 384.04504,240.32906 375.17243,242.70076 374.88896,242.7669 C 374.5488,242.85194 373.80233,242.89918 372.71569,242.89918 C 370.90148,242.88974 370.21171,242.7669 368.74711,242.17161 C 366.914,241.41569 365.76123,240.50859 363.89977,238.33532 C 361.11232,235.08486 358.59888,233.03443 355.80198,231.71157 C 354.60196,231.15408 353.298,230.72887 352.16412,230.53044 C 351.12473,230.35091 349.0365,230.34146 348.0538,230.52099 z " id="path10" style="fill:#000000;stroke:none"/>
</svg>

<svg height="723.75" viewBox="0 0 579 579" width="723.75" xmlns="http://www.w3.org/2000/svg"><path d="m147.66 148.01l-141.66 141.66 141.67 141.67 141.66 141.66 141.69-141.69 141.69-141.69-141.64-141.64c-77.898-77.898-141.66-141.64-141.69-141.64-.028 0-63.8 63.752-141.72 141.67m260.96 22.413l119.2 119.2-119.25 119.25-119.26 119.26-119.19-119.26-119.18-119.27 119.19-119.19c65.56-65.56 119.21-119.19 119.24-119.19.028 0 53.689 53.642 119.25 119.2" fill="#f00"/><path d="m348.05 230.52c-.954.18-185.01 49.588-185.67 49.843-5.216 2.05-8.721 7.758-9.78 15.922-.217 1.654-.321 4.668-.227 6.595.151 3.128.548 5.792 1.313 8.901 3.118 12.662 10.999 22.593 19.427 24.482.983.217 3.307.283 4.29.104.832-.142 183.22-49.05 185.07-49.626 3.524-1.096 6.189-3.553 8.136-7.521 1.087-2.202 1.739-4.337 2.296-7.455.444-2.457.822-3.515 1.871-5.102 1.276-1.937 3.496-3.581 5.736-4.243.369-.104 9.458-2.551 20.21-5.433 10.753-2.891 19.777-5.358 20.07-5.49 4.347-1.994 5.934-8.343 3.43-13.701-1.38-2.939-3.874-5.112-6.52-5.679-.898-.189-2.268-.17-3.175.047-.416.104-9.383 2.504-19.937 5.329-10.545 2.835-19.418 5.206-19.701 5.273-.34.085-1.087.132-2.173.132-1.814-.009-2.504-.132-3.969-.728-1.833-.756-2.986-1.663-4.847-3.836-2.787-3.25-5.301-5.301-8.098-6.624-1.2-.557-2.504-.983-3.638-1.181-1.039-.18-3.128-.189-4.11-.009"/></svg>
